X:1
T:Glaub, Hoffnung I
T:André Vierendeels
T:Melody by Georg Vogler (1625) (Soprano voice)
T:Source : Catechismus---Würzburg---J.Volmari---1652. Editor : André Vierendeels (05/09/17).
T:Notes : Original clef : C1, other voices supplied editorially Original note values have been halved Editorial accidentals above the staff Text Middle German
T:Glaub, Hoffnung I
T:©
T:©
C:André Vierendeels
Z:©
%%score [ 1 2 3 ]
L:1/8
Q:1/4=90
M:2/2
K:C
V:1 treble nm="Soprano" snm="S"
V:2 treble-8 nm="Tenor" snm="T"
V:3 bass nm="Bass" snm="B"
V:1
"^1)\n2)" E4 F2 G2 | A4 d4 | c2 B2 A4 | z4 d4 | c2 c2 d4 | A4 c2 B2 | !fermata!A4 A4 | %7
w: Glaub, Hoff- nung|seyn zwo|Tu- gend Gut:|wann|man die Lieb|zu ih- nen|thut, dann|
w: Ei ein- ge-|goss- ne|Tu- gend ist|die|Lieb, so un-|ser Hertz durch|frischt, durch|
 c2 B2 A2 A2 | _B4 G4 | F4 z4 | F4 G2 A2 | D2 E2 F2 E2 | D4 z4 | D4 F2 G2 | A2 A2 c4 |"^b" B4 A4 | %16
w: seyn sie nutz, dann|seyn all|drey,|hie ist voll-|kom- men- heit dar-|bey:|zur Se- lig-|keit die Lie-|be rend,|
w: die wir Gott umb|sei- ner|will,|und den Rech-|ten umb Got- tes|Will|zu lie- ben|al- ler- dings|be- reit,|
 z4 A4 | _B2 G2 A4 | F4 G2 E2 | D8 |] %20
w: Glaub,|Hoff- nung auff|der Welt sich|wend.|
w: zu|un- ser See-|len Se- lig-|keit.|
V:2
"^1)\n3)" c4 c2 B2 | c4 A4 | G2 d2 c4 | z4 A4 | A2 c2 B4 | c4 c2 B2 | !fermata!c4 d4 | %7
w: Glaub, Hoff- nung|seyn zwo|Tu- gend Gut:|wann|man die Lieb|zu ih- nen|thut, dann|
w: Der lie- ben|Prob seyn|die Ge- bott:|wer|ausz- gibt dasz|er ken- ne|Gott, und|
 A2 B2 c2 d2 | d4 e4 | A4 z4 | d4 c2 A2 | A2 A2 c2 c2 | A4 z4 | A4 c2 B2 | A2 d2 A4 | D4 F4 | %16
w: seyn sie nutz, dann|seyn all|drey,|hie ist voll-|kom- men- heit dar-|bey:|zur Se- lig-|keit die Lie-|be rend,|
w: hält nicht was ihm|Gott ge-|biet,|der- sel- big|Mensch sich selbst be-|liegt.|Lieb Gott und|auch den Nech-|ten dein|
 z4 c4 | d2 e2 c4 | d4 d2 c2 | A8 |] %20
w: Glaub,|Hoff- nung auff|der Welt sich|wend.|
w: im|Werck, dann wir-|stu se- lig|seyn.|
V:3
"^1)\n4)" A,4 F,2 G,2 | F,4 D,4 | E,2 G,2 A,4 | z4 D,4 | A,2 F,2 G,4 | A,4 A,2 G,2 | %6
w: Glaub, Hoff- nung|seyn zwo|Tu- gend Gut:|wann|man die Lieb|zu ih- nen|
w: Gott had sie|selb- sten|für- ge- legt:|wol|dem der sie|im Her- tzen|
 !fermata!F,4 D,4 | F,2 G,2 E,2 D,2 | G,4 C,4 | D,4 z4 | D,4 E,2 F,2 | D,2 C,2 F,2 C,2 | D,4 z4 | %13
w: thut, dann|seyn sie nutz, dan|seyn all|drey,|nie ist voll-|kom- men- heit dar-|bey:|
w: trägt, drinn|will er den Ge-|hör- sam,|Pflicht|und Dienst der|Men- schen hertz- lich|v'richt,|
 D,4 F,2 G,2 | F,2 D,2 F,4 | G,4 D,4 | z4 A,4 | G,2 C2 A,2 E,2 | D,4 G,2 A,2 | D,8 |] %20
w: zur Se- lig-|keit die Lie-|be rend,|Glaub,|Hoff- nung auff _|der Welt sich|wend.|
w: Dar- zu dich|dann der hei-|lig Geist|in|Gna- den stärckt _|und un- der-|weist.|

